X: 1
T: the Shores of Lough Gowna
R: jig
Z: 2020 John Chambers <jc:trillian.mit.edu>
S: https://www.facebook.com/groups/Fiddletuneoftheday/
S: https://www.facebook.com/groups/Fiddletuneoftheday/photos/
M: 6/8
L: 1/8
K: Bm
A \
| "Bm"B3 BAF | "D"FEF DFA | "Bm"BcB BAF | "D"d2e fed |
| "Bm"B{c}dB BAF | "D"FEF DFA | "Bm"def "Em"geg | "Bm"fdB B2 :|
|: A \
| "D"def a2b | "D"afb afe | "D"dFA def | "Em"g3 "Bm"fdB |
| "D"def a2b | "D"afb afe | "Bm"def "Em"geg | "Bm"fdB B2 :|
